X: 8
T:Campbell's Fare
R:march
N:C part not al
Z:John Chambers <jc@eddie.mit.edu>
M:2/4
L:1/8
K:AMix
e|:A>B cd|ea e>d|cA AB/c/|dd/B/ G>B|
A>B cd|ea e>d|cB/A/ GB|A4:|
g/f/||ea ag/f/|ea e>d|cA AB/c/|dd/B/ Gg/f/|
ea ag/f/|ea e>d|cB/A/ GB|A3 g/f/|
ea ag/f/|ea e>d|cA AB/c/|dd/B/ G>B|
A>B cd|ea e>d|cB/A/ GB|A4|
|:ee ef|g2 fe|dB GB|dB dg/f/|
ee ef|g2 fe|dB gB|BA A2:|
